symbols/web/feed/materialsymbolssharp/feed_wght700fill1_40px.svg

<svg xmlns="http://www.w3.org/2000/svg" height="40" width="40"><path d="M3.833 36.167V3.792h22.875l9.5 9.5v22.875Zm7.417-8.417h17.5v-3h-17.5Zm0-12.208h9.833V12.5H11.25Zm0 6.125h17.5v-3.042h-17.5Zm13.042-5.959h7.5l-7.5-7.5Z"/></svg>

<svg xmlns="http://www.w3.org/2000/svg" height="40" width="40"><path d="M3.833 36.167V3.792H26.708L36.208 13.292V36.167ZM11.25 27.75H28.75V24.75H11.25ZM11.25 15.542H21.083V12.5H11.25ZM11.25 21.667H28.75V18.625H11.25ZM24.292 15.708H31.792L24.292 8.208Z"/></svg>
